X: 3804
T: Black Bear, The
R: jig
M: 6/8
K: Eminor
A|:~B3 ~E3|~B3 def|~e3 edB|dBA AGA|
~B3 ~E3|~B3 def|edB A2B|1 GFD ~E3:|2 GFd ~e3||
|:~g3 e2f|~g3 bge|~g3 efg|fdf afd|
~g3 e2f|~g3 bag|fag fed|1 efd e2f:|2 efd e2A||

